!!!XEN: Invite our sweetheart
!!!AGN: Southern dance song
!!!COM: Anonymous
!!!CNT: Native American -- Ojibway
!!!TXO: Ojibway
!!!MLC: Lac du Flambeau reservation, northern Wisconsin, U.S.A.
!!!MRD: 1909-1912///
!!!MPN: E'niwub'e ("Sits farther along")
**kern
*MM184
*Imale
*k[b-e-]
*clefF4
*M2/4
8d
8d
=1
8d
8B-
4B-
=2
4B-
8B-
8B-
=3
8B-
8G
4G
=4
*M3/4
4G
4G
8G
8G
=5
*M2/4
4G
8.G
16B-
=6
4B-
8c
8c
=7
2B-
=8
4G
4D
=9
[4D
8.D]
16G
=10
4.G
8G
=11
4G
4D
=12
4.G
8G
=13
[4G
8.G]
16B-
=14
4B-
8c
8c
=15
2B-
=16
4G
4D
=17
[4D
8.D]
16G
=18
4.G
8G
=19
4G
4D
=20
4.G
8G
=21
2G
==
*-
!!!OCL: Frances Densmore
!!!YOR: Chippewa [i.e., Ojibway] Music--II, Bulletin 53 of the Bureau of American Ethnology, Smitsonian Institution
!!!ONM: 120
!!!PPG: 235
!!!PUB: published
!!!PPR: Government Printing Office
!!!PPP: Washington, D.C.
!!!PDT: 1912///
!!!EST: missing clef changes, text, drum tempo, and drum part
!!!YEC: Copyright 1998 Paul von Hippel
!!!YEM: Rights to all derivate electronic formats reserved.
!!!EFL: 37/42
